X: 22379
T: Lad O'Beirne's
R: reel
M: 4/4
K: Dmajor
|:B2AF BFAF|EAFD EFDB,|A,D~D2 A,DFA|BABc dfed|
BF~F2 BFAF|EAFD EFDB,|A,DFD B,DGB|1 Agfe d3c:|2 Agfe d3e||
f2ed fded|BedB AGFB|A2GB ABdf|edef e2de|
fd~d2 fded|BedB ADFB|A2GB ABdf|~e3f d3e|
f2ed fded|BedB AGFB|A2GB ABdf|~e3f gfed|
~f3e d3A|BAdB AFDB,|A,D~D2 B,DGB|Agfe d3c||

